X:826
T:Leaving Of Liverpool
M:2/4
L:1/8
R:Polka
K:D
N:Spelad av t ex Dubliners och Pogues. http://www.thesession.org/tunes/display/3217
DE| F3 A | GF ED | d3 B | A2 DE | F2 A2 | B2 A2 | E4 | E2 DE |
F3 A | GF DE | d3 B | A2 DE | F2 AF | E2 E2 | D4 |
|: D2 cd | e3 c | A2 ce | d3 B | A3 D | F3 A | BA GF | E4 |
A2 A G | F2 FA | GF ED | d3 B | A D2 E | FA AF | E2 E2 | D4 :|

(:musicend:)

(:music:)
